javascript.info/1-js/04-object-basics/01-object/variable-contains-reference.svg

<?xml version="1.0" encoding="UTF-8"?>
<svg width="370px" height="249px" viewBox="0 0 370 249" version="1.1" xmlns="http://www.w3.org/2000/svg" xmlns:xlink="http://www.w3.org/1999/xlink">
    <!-- Generator: sketchtool 55.2 (78181) - https://sketchapp.com -->
    <title>variable-contains-reference.svg</title>
    <desc>Created with sketchtool.</desc>
    <g id="combined" stroke="none" stroke-width="1" fill="none" fill-rule="evenodd">
        <g id="variable-contains-reference.svg">
            <g id="noun_1211_cc" transform="translate(12.000000, 119.000000)" fill="#E8C48F">
                <path d="M17,28.1960457 L129.557785,28.1960457 L129.557785,71.1456641 C129.557785,71.5185728 129.479295,72.0083855 129.279367,72.4404861 C129.07944,72.8725868 112.704625,108 112.704625,108 L112.704625,53.6396695 L129.559266,28.1960457 L148,0 L35.4407339,0 L17,28.1960457 L17,28.1960457 Z" id="Shape"></path>
                <polyline id="Shape" points="17 57 17 29 2 57"></polyline>
                <path d="M0,59 L0,113.729971 C0,117.150501 1.4836395,119 4.38712201,119 L104.473443,119 C107.59502,119 110,116.4521 110,115.524372 L110,59 L0,59 L0,59 Z" id="Shape"></path>
            </g>
            <text id="user" font-family="OpenSans-SemiBold, Open Sans" font-size="18" font-weight="500" fill="#FFFFFF">
                <tspan x="47" y="215">user</tspan>
            </text>
            <rect id="Rectangle-4" fill="#FFFFFF" x="116" y="153" width="44" height="6"></rect>
            <path d="M123.854043,154.321929 L137.633029,140.846349 C139.246288,139.571606 142.818195,136.418958 141.204936,135.144404 C139.591676,133.868906 138.540503,134.671996 136.929629,135.947493 L118.43143,154.32193 C116.818171,155.596673 116.818171,157.16666 118.43143,158.441214 C118.43143,158.441214 139.913731,178.508876 141.204935,178.508876 C144.209997,178.508876 143.882164,176.687821 142.268905,175.413266 L123.854043,157.587044 L158.842523,157.587044 L182.224064,157.587044 L201.028364,157.587044 C203.308965,157.587044 204.778514,157.865709 204.778514,156.062589 C204.778514,154.259469 203.308964,154.321929 201.028364,154.321929 L123.854043,154.321929 Z" id="Shape-3" fill="#EE6B47" transform="translate(161.000000, 156.504438) scale(-1, 1) translate(-161.000000, -156.504438) "></path>
            <g id="Rectangle-3-+-Shape" transform="translate(58.000000, 135.000000)">
                <rect id="Rectangle-3" fill="#FFFFFF" x="0" y="0" width="47" height="37"></rect>
                <path d="M44,33.7718421 L4,33.7718421 L4,4 L44,4 L44,33.7718421 L44,33.7718421 Z M8.7332,31.0177632 L39.2664,31.0177632 L29.2192,20.8671053 L27.3168,22.7567105 C26.4932,23.5690789 25.314,24.0340789 24.0748,24.0340789 C24.068,24.0340789 24.0608,24.0328947 24.054,24.0328947 C22.81,24.0277632 21.6272,23.5528947 20.808,22.7286842 L18.874,20.7964474 L8.7332,31.0177632 L8.7332,31.0177632 Z M6.7908,8.72618421 L6.7908,29.0397368 L16.9128,18.8381579 L6.7908,8.72618421 L6.7908,8.72618421 Z M31.1856,18.9131579 L41.2092,29.0385526 L41.2092,8.95434211 L31.1856,18.9131579 L31.1856,18.9131579 Z M8.7396,6.75486842 L22.7968,20.7968421 C23.1012,21.1023684 23.5632,21.2776316 24.0664,21.2788158 L24.0748,21.2788158 C24.5708,21.2788158 25.0432,21.1059211 25.3392,20.8122368 L39.4888,6.75486842 L8.7396,6.75486842 L8.7396,6.75486842 Z" id="Shape" fill="#EE6B47"></path>
            </g>
            <path d="M241.93675,117 L225.270083,137 L355.729917,137 L339.06325,117 L241.93675,117 Z" id="Rectangle-4-Copy" stroke="#D1C4B1" stroke-width="4" fill="#D1C4B1" opacity="0.5"></path>
            <g id="Group-2" transform="translate(271.000000, 10.000000)">
                <g id="Group">
                    <rect id="Rectangle-7" fill="#FFFFFF" x="0" y="0" width="32" height="124"></rect>
                    <path d="M0,0 L32,0 L32,124 L0,124 L0,0 Z M16.5,115 C20.6421356,115 24,111.642136 24,107.5 C24,103.357864 20.6421356,100 16.5,100 C12.3578644,100 9,103.357864 9,107.5 C9,111.642136 12.3578644,115 16.5,115 Z M4,5 L4,92 L28,92 L28,5 L4,5 Z" id="Combined-Shape" fill="#E8C48F"></path>
                </g>
                <text id="name" transform="translate(15.500000, 47.500000) rotate(-90.000000) translate(-15.500000, -47.500000) " font-family="PTMono-Bold, PT Mono" font-size="16" font-weight="bold" fill="#EE6B47">
                    <tspan x="-3.7" y="52.5">name</tspan>
                </text>
            </g>
            <rect id="Rectangle-4" stroke="#BCA68E" stroke-width="4" fill="#FFF9EB" x="223" y="131" width="135" height="50"></rect>
            <rect id="Rectangle-8" stroke="#BCA68E" stroke-width="3" x="278.5" y="151.5" width="25" height="10"></rect>
        </g>
    </g>
</svg>

<svg xmlns="http://www.w3.org/2000/svg" width="370" height="249" viewBox="0 0 370 249"><defs><style>@import url(https://fonts.googleapis.com/css?family=Open+Sans:bold,italic,bolditalic%7CPT+Mono);@font-face{font-family:&apos;PT Mono&apos;;font-weight:700;font-style:normal;src:local(&apos;PT MonoBold&apos;),url(/pack/modules/styles/blocks/font/PTMonoBold.woff2) format(&apos;woff2&apos;),url(/pack/modules/styles/blocks/font/PTMonoBold.woff) format(&apos;woff&apos;),url(/pack/modules/styles/blocks/font/PTMonoBold.ttf) format(&apos;truetype&apos;)}</style></defs><g id="combined" fill="none" fill-rule="evenodd" stroke="none" stroke-width="1"><g id="variable-contains-reference.svg"><g id="noun_1211_cc" fill="#E8C48F" transform="translate(12 119)"><path id="Shape" d="M17 28.196h112.558v42.95c0 .373-.079.862-.279 1.294-.2.433-16.574 35.56-16.574 35.56V53.64l16.854-25.444L148 0H35.44L17 28.196zM17 57V29L2 57"/><path id="Shape" d="M0 59v54.73c0 3.42 1.484 5.27 4.387 5.27h100.086c3.122 0 5.527-2.548 5.527-3.476V59H0z"/></g><text id="user" fill="#FFF" font-family="OpenSans-Bold, Open Sans" font-size="18" font-weight="bold"><tspan x="47" y="215">user</tspan></text><path id="Rectangle-4" fill="#FFF" d="M116 153h44v6h-44z"/><path id="Shape-3" fill="#EE6B47" d="M123.854 154.322l13.779-13.476c1.613-1.274 5.185-4.427 3.572-5.702-1.613-1.275-2.664-.472-4.275.803l-18.499 18.375c-1.613 1.275-1.613 2.845 0 4.12 0 0 21.483 20.067 22.774 20.067 3.005 0 2.677-1.821 1.064-3.096l-18.415-17.826H201.028c2.281 0 3.75.279 3.75-1.524 0-1.804-1.469-1.741-3.75-1.741h-77.174z" transform="matrix(-1 0 0 1 322 0)"/><g id="Rectangle-3-+-Shape" transform="translate(58 135)"><path id="Rectangle-3" fill="#FFF" d="M0 0h47v37H0z"/><path id="Shape" fill="#EE6B47" d="M44 33.772H4V4h40v29.772zM8.733 31.018h30.533L29.22 20.868l-1.902 1.889c-.824.812-2.003 1.277-3.242 1.277l-.021-.001c-1.244-.005-2.427-.48-3.246-1.304l-1.934-1.933-10.14 10.222zM6.791 8.726V29.04l10.122-10.202L6.79 8.726zm24.395 10.187L41.209 29.04V8.954l-10.023 9.96zM8.74 6.755l14.057 14.042c.304.305.766.48 1.27.482h.008c.496 0 .968-.173 1.264-.467L39.49 6.755H8.739z"/></g><path id="Rectangle-4-Copy" fill="#D1C4B1" stroke="#D1C4B1" stroke-width="4" d="M241.937 117l-16.667 20h130.46l-16.667-20h-97.126z" opacity=".5"/><g id="Group-2" transform="translate(271 10)"><g id="Group"><path id="Rectangle-7" fill="#FFF" d="M0 0h32v124H0z"/><path id="Combined-Shape" fill="#E8C48F" d="M0 0h32v124H0V0zm16.5 115a7.5 7.5 0 100-15 7.5 7.5 0 000 15zM4 5v87h24V5H4z"/></g><text id="name" fill="#EE6B47" font-family="PTMono-Bold, PT Mono" font-size="16" font-weight="bold" transform="rotate(-90 15.5 47.5)"><tspan x="-3.7" y="52.5">name</tspan></text></g><path id="Rectangle-4" fill="#FFF9EB" stroke="#BCA68E" stroke-width="4" d="M223 131h135v50H223z"/><path id="Rectangle-8" stroke="#BCA68E" stroke-width="3" d="M278.5 151.5h25v10h-25z"/></g></g></svg>
